_includes/icons/ios-bill.svg

<svg fill="#666" height="50" viewBox="0 0 50 50" width="50" xmlns="http://www.w3.org/2000/svg"><path d="m4 0v50h42v-50zm2 2h38v46h-38zm7 9v2h24v-2zm0 14v2h14v-2zm19 0v2h5v-2zm-19 6v2h14v-2zm19 0v2h5v-2zm-19 6v2h14v-2zm19 0v2h5v-2z"/></svg>

<svg xmlns="http://www.w3.org/2000/svg" viewBox="0 0 50 50" width="50" height="50" fill="#666"><path d="M 4 0 L 4 50 L 46 50 L 46 0 Z M 6 2 L 44 2 L 44 48 L 6 48 Z M 13 11 L 13 13 L 37 13 L 37 11 Z M 13 25 L 13 27 L 27 27 L 27 25 Z M 32 25 L 32 27 L 37 27 L 37 25 Z M 13 31 L 13 33 L 27 33 L 27 31 Z M 32 31 L 32 33 L 37 33 L 37 31 Z M 13 37 L 13 39 L 27 39 L 27 37 Z M 32 37 L 32 39 L 37 39 L 37 37 Z"/></svg>
